X:117
T:Hopkins’s Fancy.2voices. WM.117
M:6/8
L:1/8
Q:3/8=120
S:Wm.Mittell’s MS, New Romney,Kent,1799
R:.Jig
O:England
A:Kent
N:Doesn’t sound good!
Z:vmp.Chris Partington
K:A
[V:1]|:”Key as per MS”cGe cGe|dGf dGf|edc ABc|d2dd3|!
[V:2]|:AEc AEc|BEd BEd|cBA AGA|B2BB3|!
%
[V:1]cGe cGe|dGf dGf|eca =fdf|g2gg3:|!
[V:2]AEc AEc|BEd BEd|cAf =cAc|e2ee3:|!
%
[V:1]|:G2gG2B|AcB ABc|G2gB2d|ced cde|!
[V:2]|:E2eE2G|FAG FGA|E2eG2B|AcB ABc|!
%
[V:1]f2fe3|a2ag3|fed cdB|c3c3:|
[V:2]d2dc3|f2fe3|dcB ABG|A3A3:|

